packages/tokens/icons/recommendations/size32Px.svg

<svg viewBox="0 0 32 32" fill="none" xmlns="http://www.w3.org/2000/svg" width="1em" height="1em"><rect x="2.5" y="5.5" width="27" height="21" rx="1.5" stroke="currentColor"/><line x1="3" y1="9.5" x2="29" y2="9.5" stroke="currentColor"/><circle cx="4.5" cy="7.5" r="0.5" fill="currentColor"/><circle cx="6.5" cy="7.5" r="0.5" fill="currentColor"/><circle cx="8.5" cy="7.5" r="0.5" fill="currentColor"/><path d="M6.65565 19.2537L5.34654 17.9898C5.20082 17.8491 5.27414 17.6026 5.47307 17.5644L7.38847 17.1968C7.46821 17.1815 7.53555 17.1284 7.56906 17.0545L8.27229 15.5025C8.36099 15.3068 8.63901 15.3068 8.72771 15.5025L9.43094 17.0545C9.46445 17.1284 9.53179 17.1815 9.61153 17.1968L11.5269 17.5644C11.7259 17.6026 11.7992 17.8491 11.6535 17.9898L10.3443 19.2537C10.2853 19.3108 10.258 19.3932 10.2713 19.4742L10.6037 21.4915C10.6377 21.6975 10.4191 21.8519 10.2363 21.751L8.62077 20.8597C8.5456 20.8183 8.4544 20.8183 8.37923 20.8597L6.76373 21.751C6.58092 21.8519 6.36234 21.6975 6.39629 21.4915L6.72868 19.4742C6.74203 19.3932 6.71473 19.3108 6.65565 19.2537Z" stroke="currentColor" stroke-linejoin="round"/><path d="M21.6557 19.2537L20.3465 17.9898C20.2008 17.8491 20.2741 17.6026 20.4731 17.5644L22.3885 17.1968C22.4682 17.1815 22.5356 17.1284 22.5691 17.0545L23.2723 15.5025C23.361 15.3068 23.639 15.3068 23.7277 15.5025L24.4309 17.0545C24.4644 17.1284 24.5318 17.1815 24.6115 17.1968L26.5269 17.5644C26.7259 17.6026 26.7992 17.8491 26.6535 17.9898L25.3443 19.2537C25.2853 19.3108 25.258 19.3932 25.2713 19.4742L25.6037 21.4915C25.6377 21.6975 25.4191 21.8519 25.2363 21.751L23.6208 20.8597C23.5456 20.8183 23.4544 20.8183 23.3792 20.8597L21.7637 21.751C21.5809 21.8519 21.3623 21.6975 21.3963 21.4915L21.7287 19.4742C21.742 19.3932 21.7147 19.3108 21.6557 19.2537Z" stroke="currentColor" stroke-linejoin="round"/><path d="M14.1557 16.2537L12.8465 14.9898C12.7008 14.8491 12.7741 14.6026 12.9731 14.5644L14.8885 14.1968C14.9682 14.1815 15.0356 14.1284 15.0691 14.0545L15.7723 12.5025C15.861 12.3068 16.139 12.3068 16.2277 12.5025L16.9309 14.0545C16.9644 14.1284 17.0318 14.1815 17.1115 14.1968L19.0269 14.5644C19.2259 14.6026 19.2992 14.8491 19.1535 14.9898L17.8443 16.2537C17.7853 16.3108 17.758 16.3932 17.7713 16.4742L18.1037 18.4915C18.1377 18.6975 17.9191 18.8519 17.7363 18.751L16.1208 17.8597C16.0456 17.8183 15.9544 17.8183 15.8792 17.8597L14.2637 18.751C14.0809 18.8519 13.8623 18.6975 13.8963 18.4915L14.2287 16.4742C14.242 16.3932 14.2147 16.3108 14.1557 16.2537Z" stroke="currentColor" stroke-linejoin="round"/></svg>

<svg xmlns="http://www.w3.org/2000/svg" fill="none" viewBox="0 0 32 32" width="1em" height="1em"><rect width="27" height="21" x="2.5" y="5.5" stroke="currentColor" rx="1.5"/><path stroke="currentColor" d="M3 9.5h26"/><circle cx="4.5" cy="7.5" r=".5" fill="currentColor"/><circle cx="6.5" cy="7.5" r=".5" fill="currentColor"/><circle cx="8.5" cy="7.5" r=".5" fill="currentColor"/><path stroke="currentColor" stroke-linejoin="round" d="m6.656 19.254-1.31-1.264a.25.25 0 0 1 .127-.426l1.915-.367a.25.25 0 0 0 .181-.142l.703-1.553a.25.25 0 0 1 .456 0l.703 1.553a.25.25 0 0 0 .18.142l1.916.367a.25.25 0 0 1 .127.426l-1.31 1.264a.25.25 0 0 0-.073.22l.333 2.017a.25.25 0 0 1-.368.26l-1.615-.891a.25.25 0 0 0-.242 0l-1.615.891a.25.25 0 0 1-.368-.26l.333-2.017a.25.25 0 0 0-.073-.22Zm15 0-1.31-1.264a.25.25 0 0 1 .127-.426l1.916-.367a.25.25 0 0 0 .18-.142l.703-1.553a.25.25 0 0 1 .456 0l.703 1.553a.25.25 0 0 0 .18.142l1.916.367a.25.25 0 0 1 .127.426l-1.31 1.264a.25.25 0 0 0-.073.22l.333 2.017a.25.25 0 0 1-.368.26l-1.615-.891a.25.25 0 0 0-.242 0l-1.615.891a.25.25 0 0 1-.368-.26l.333-2.017a.25.25 0 0 0-.073-.22Zm-7.5-3-1.31-1.264a.25.25 0 0 1 .127-.426l1.915-.367a.25.25 0 0 0 .181-.142l.703-1.553a.25.25 0 0 1 .456 0l.703 1.553a.25.25 0 0 0 .18.142l1.916.367a.25.25 0 0 1 .127.426l-1.31 1.264a.25.25 0 0 0-.073.22l.333 2.017a.25.25 0 0 1-.368.26l-1.615-.891a.25.25 0 0 0-.242 0l-1.615.891a.25.25 0 0 1-.368-.26l.333-2.017a.25.25 0 0 0-.073-.22Z"/></svg>
